build/img/icons/camera.svg

<svg width="35" height="28" viewBox="0 0 35 28" fill="none" xmlns="http://www.w3.org/2000/svg">
<path d="M34 11H1V21.5H17.5H33.75L34.25 15.7826L34 11Z" fill="#FC9B09"/>
<path d="M0.671875 21.9329V25.9776C0.671875 26.7225 1.27521 27.3258 2.02011 27.3258H32.4903C33.2352 27.3258 33.8385 26.7225 33.8385 25.9776V21.9329H0.671875Z" fill="white"/>
<path d="M32.4903 5.75427H24.6705L22.3468 1.1069C22.1183 0.649851 21.6511 0.361328 21.1408 0.361328H13.3696C12.8593 0.361328 12.3921 0.649851 12.1636 1.1069L9.83988 5.75427H7.41306V4.40604C7.41306 3.66114 6.80972 3.0578 6.06482 3.0578H4.71658C3.97168 3.0578 3.36835 3.66114 3.36835 4.40604V5.75427H2.02011C1.27521 5.75427 0.671875 6.35761 0.671875 7.10251V11.1472H33.8385V7.10251C33.8385 6.35761 33.2352 5.75427 32.4903 5.75427Z" fill="white"/>
<path d="M25.5 17C25.5 21.6846 21.7613 25 17.2162 25C12.6703 25 9.86486 20.5377 9 16.5C9 11.8154 12.9549 8.5 17.5 8.5C22.0459 8.5 25.5 12.3164 25.5 17Z" fill="#57555C"/>
<path d="M17.5 12C19.9812 12 22 14.0188 22 16.5C22 18.9812 19.9812 21 17.5 21C15.0188 21 13 18.9812 13 16.5C13 14.0188 15.0188 12 17.5 12Z" fill="white"/>
<path d="M26.5 9C26.776 9 27 8.552 27 8C27 7.448 26.776 7 26.5 7C26.224 7 26 7.448 26 8C26 8.552 26.224 9 26.5 9Z" fill="#37373F"/>
<path d="M32.9492 5.33333H25.442L23.2746 1.1058C22.9248 0.423733 22.2219 0 21.4402 0H13.5598C12.7779 0 12.0751 0.423733 11.7254 1.10587L9.55801 5.33333H8.20312V4.66667C8.20312 3.56387 7.28314 2.66667 6.15234 2.66667H4.78516C3.65436 2.66667 2.73438 3.56387 2.73438 4.66667V5.33333H2.05078C0.91998 5.33333 0 6.23053 0 7.33333C0 9.145 0 25.2953 0 26C0 27.1028 0.91998 28 2.05078 28H32.9492C34.08 28 35 27.1028 35 26C35 24.1883 35 8.03807 35 7.33333C35 6.23053 34.08 5.33333 32.9492 5.33333ZM1.36719 11.9933H10.0113C9.1028 13.3774 8.61328 14.9995 8.61328 16.6667C8.61328 18.334 9.10287 19.9495 10.0112 21.3333H1.36719V11.9933ZM9.98047 16.6667C9.98047 12.5863 13.3841 9.33333 17.5 9.33333C21.6107 9.33333 25.0195 12.5813 25.0195 16.6667C25.0195 20.7475 21.6154 24 17.5 24C13.3809 24 9.98047 20.7439 9.98047 16.6667ZM26.3867 16.6667C26.3867 14.9994 25.8972 13.3841 24.9887 12H33.6328V21.3333H24.9887C25.8972 19.9493 26.3867 18.3339 26.3867 16.6667ZM12.9483 1.70213C13.0649 1.47467 13.2992 1.33333 13.5598 1.33333H21.4402C21.7008 1.33333 21.9352 1.47467 22.0518 1.70213L23.9135 5.33333H11.0865L12.9483 1.70213ZM4.10156 4.66667C4.10156 4.29907 4.40822 4 4.78516 4H6.15234C6.52928 4 6.83594 4.29907 6.83594 4.66667V5.33333H4.10156V4.66667ZM2.05078 6.66667C2.67155 6.66667 31.9882 6.66667 32.9492 6.66667C33.3262 6.66667 33.6328 6.96573 33.6328 7.33333V10.6667H23.9103C22.24 8.96853 19.9217 8 17.5 8C15.078 8 12.7595 8.9688 11.0896 10.6667H1.36719V7.33333C1.36719 6.96573 1.67385 6.66667 2.05078 6.66667ZM32.9492 26.6667H2.05078C1.67385 26.6667 1.36719 26.3676 1.36719 26V22.6667H11.0897C12.76 24.3648 15.0784 25.3333 17.5 25.3333C19.922 25.3333 22.2406 24.3645 23.9104 22.6667H33.6328V26C33.6328 26.3676 33.3262 26.6667 32.9492 26.6667Z" fill="#37373F"/>
<path d="M17.5 23C21.0841 23 24 20.0841 24 16.5C24 12.9159 21.0841 10 17.5 10C13.9159 10 11 12.9159 11 16.5C11 20.0841 13.9159 23 17.5 23ZM17.5 11.4444C20.2876 11.4444 22.5556 13.7124 22.5556 16.5C22.5556 19.2876 20.2876 21.5556 17.5 21.5556C14.7124 21.5556 12.4444 19.2876 12.4444 16.5C12.4444 13.7124 14.7124 11.4444 17.5 11.4444Z" fill="#37373F"/>
<path d="M14.4661 16.0456C14.7229 16.0881 14.9769 15.8451 15.0336 15.5028C15.2034 14.4776 15.9671 13.7471 16.736 13.8744C16.9927 13.917 17.2468 13.674 17.3035 13.3317C17.3602 12.9894 17.198 12.6774 16.9413 12.6349C15.6598 12.4227 14.387 13.6401 14.104 15.3488C14.0473 15.6911 14.2094 16.003 14.4661 16.0456Z" fill="#5286EC"/>
<path d="M29.75 9H31.25C31.6641 9 32 8.5523 32 8C32 7.4477 31.6641 7 31.25 7H29.75C29.3359 7 29 7.4477 29 8C29 8.5523 29.3359 9 29.75 9Z" fill="#37373F"/>
</svg>

<svg width="35" height="28" fill="none" xmlns="http://www.w3.org/2000/svg"><path d="M34 11H1v10.5h32.75l.5-5.717L34 11z" fill="#FC9B09"/><path d="M.672 21.933v4.045c0 .744.603 1.348 1.348 1.348h30.47c.745 0 1.349-.604 1.349-1.348v-4.045H.672zM32.49 5.754h-7.82l-2.323-4.647A1.349 1.349 0 0021.14.36h-7.77c-.51 0-.978.289-1.206.746L9.84 5.754H7.413V4.406c0-.745-.603-1.348-1.348-1.348H4.717c-.745 0-1.349.603-1.349 1.348v1.348H2.02c-.745 0-1.348.604-1.348 1.349v4.044h33.167V7.103c0-.745-.604-1.349-1.349-1.349z" fill="#fff"/><path d="M25.5 17c0 4.685-3.739 8-8.284 8C12.67 25 9.865 20.538 9 16.5c0-4.685 3.955-8 8.5-8 4.546 0 8 3.816 8 8.5z" fill="#57555C"/><path d="M17.5 12c2.481 0 4.5 2.019 4.5 4.5S19.981 21 17.5 21a4.505 4.505 0 01-4.5-4.5c0-2.481 2.019-4.5 4.5-4.5z" fill="#fff"/><path d="M26.5 9c.276 0 .5-.448.5-1s-.224-1-.5-1-.5.448-.5 1 .224 1 .5 1z" fill="#37373F"/><path d="M32.95 5.333h-7.508l-2.167-4.227A2.046 2.046 0 0021.44 0h-7.88c-.782 0-1.485.424-1.835 1.106L9.558 5.333H8.203v-.666c0-1.103-.92-2-2.05-2H4.784c-1.13 0-2.05.897-2.05 2v.666H2.05c-1.13 0-2.05.898-2.05 2V26c0 1.103.92 2 2.05 2h30.9c1.13 0 2.05-.897 2.05-2V7.333c0-1.102-.92-2-2.05-2zm-31.583 6.66h8.644a8.492 8.492 0 000 9.34H1.367v-9.34zm8.613 4.674c0-4.08 3.404-7.334 7.52-7.334 4.11 0 7.52 3.248 7.52 7.334 0 4.08-3.405 7.333-7.52 7.333-4.12 0-7.52-3.256-7.52-7.333zm16.407 0c0-1.668-.49-3.283-1.398-4.667h8.644v9.333h-8.644a8.492 8.492 0 001.398-4.666zM12.948 1.702a.682.682 0 01.612-.369h7.88c.26 0 .495.142.612.37l1.861 3.63H11.086l1.862-3.63zM4.102 4.667c0-.368.306-.667.683-.667h1.367c.377 0 .684.3.684.667v.666H4.102v-.666zm-2.051 2h30.898c.377 0 .684.299.684.666v3.334H23.91A9.003 9.003 0 0017.5 8c-2.422 0-4.74.969-6.41 2.667H1.367V7.333c0-.367.307-.666.684-.666zm30.898 20H2.051A.676.676 0 011.367 26v-3.333h9.723a9.003 9.003 0 006.41 2.666c2.422 0 4.74-.968 6.41-2.666h9.723V26a.676.676 0 01-.684.667z" fill="#37373F"/><path d="M17.5 23c3.584 0 6.5-2.916 6.5-6.5S21.084 10 17.5 10a6.507 6.507 0 00-6.5 6.5c0 3.584 2.916 6.5 6.5 6.5zm0-11.556a5.061 5.061 0 015.056 5.056 5.061 5.061 0 01-5.056 5.056 5.061 5.061 0 01-5.056-5.056 5.061 5.061 0 015.056-5.056z" fill="#37373F"/><path d="M14.466 16.046c.257.042.51-.2.568-.543.17-1.025.933-1.756 1.702-1.629.257.043.51-.2.567-.542.057-.343-.105-.655-.362-.697-1.281-.212-2.554 1.005-2.837 2.714-.057.342.105.654.362.697z" fill="#5286EC"/><path d="M29.75 9h1.5c.414 0 .75-.448.75-1s-.336-1-.75-1h-1.5c-.414 0-.75.448-.75 1s.336 1 .75 1z" fill="#37373F"/></svg>
